X:1
T:Reeves, 88.85
T:Reeves, 88.85
T:Charles Reeves, before 1920
T:Public Domain Courtesy of the Cyber Hymnal™
C:Charles Reeves, before 1920
Z:Public Domain
Z:Courtesy of the Cyber Hymnal™
%%score ( 1 2 ) ( 3 4 )
L:1/8
M:3/4
K:Eb
V:1 treble 
V:2 treble 
V:3 bass 
V:4 bass 
V:1
 [EG]2 [DF]2 E2 | [EB]4 [F=B]2 | [=Ec]4 [EG]2 | [CA]6 | [Ac]2 [Ac]2 [Ec]2 | [ce]4 [Ac]2 | %6
 [EB]4 [EG]2 | [DF]6 | [EG]2 [EG]2 [EG]2 | [EB]4 [Ee]2 | [Af]4 [ce]2 | ([ce]2 [Ac]4) | %12
 [EB]4 [EG]2 | [Ge]4 [EG]2 | F6 | [B,E]6 |] %16
V:2
 x4 E2 | x6 | x6 | x6 | x6 | x6 | x6 | x6 | x6 | x6 | x6 | x6 | x6 | x6 | (D4 B,2) | x6 |] %16
V:3
 [E,B,]2 [E,A,]2 [E,G,]2 | [E,G,]4 [D,G,]2 | C4 [=E,B,]2 | [F,A,]6 | A,2 [E,A,]2 [C,A,]2 | %5
 [A,,A,]4 [A,,A,E]2 | [B,,G,]4 [B,,B,]2 | (B,2 =A,2 _A,2) | [E,B,]2 [D,B,]2 [_D,B,]2 | %9
 [_D,G,]4 [C,A,]2 | [C,A,]4 [A,,A,]2 | [A,,A,]6 | [B,,G,]4 [B,,B,]2 | [B,,B,]4 [B,,G,]2 | A,6 | %15
 [E,G,]6 |] %16
V:4
 x6 | x6 | (C,2 D,2) x2 | x6 | A,2 x4 | x6 | x6 | B,,6 | x6 | x6 | x6 | x6 | x6 | x6 | %14
 (B,,2 C,2 D,2) | x6 |] %16

